X:1
T:Title
%%score { ( 1 3 4 ) | ( 2 5 ) }
L:1/8
M:6/8
K:Bb
V:1 treble nm="Grand Piano"
V:3 treble 
V:4 treble 
V:2 bass 
V:5 bass 
V:1
 z3 z2[Q:1/4=100] [Fd] | [Fd]2 [Fd] [Fd]2 [Fd] | d3- dc[FB] | [EG]2 [GB] cBG | [DF]3- [DF]2 [Fd] | %5
 [Fd]2 [Fd] [Fd]2 [Fd] | .[Fd]6 | [FA]2 [FA] [GB]2 [=EG] |[M:5/8] F-F- F3 |[M:1/8] F | %10
[M:3/4] [B,FB]2 [B,FB] [B,FB]2 [B,DF] | G2 G G2 G | [=Ec]2 [Ec] [Ec]2 [GB] |[M:7/8] B2 A A3 F | %14
[M:3/4] B2 BB B2 | B2 BB B2 | c2 cc c2 | c2 cc c2 | d3 e3 | f2 d [Ge]2 c | B2 d c2 A | %21
[M:5/8] [DB]-[DB]- [DB]3 |] %22
V:2
 z3 z2 [B,,B,] | [B,,B,]2 [B,,B,] [B,,B,]2 [B,,B,] | [B,,B,]3- [B,,B,][C,A,][D,B,] | %3
 [E,B,]2 [E,B,] [E,G,E]2 [E,B,E] | [B,,B,]3- [B,,B,]2 [B,,B,] | [B,,B,]2 [B,,B,] [B,,B,]2 [B,,B,] | %6
 [B,,B,]3 z E[B,,F,] | [C,F,]2 [C,C] [C,C]2 [C,B,] |[M:5/8] [F,A,]-[F,A,]- [F,A,]3 |[M:1/8] F, | %10
[M:3/4] D,2 D, D,2 B,, | [E,B,E]2 [E,B,E] [E,B,E]2 [E,B,E] | [C,C]2 [C,C] [C,C]2 [=E,C] | %13
[M:7/8] [F,DF]2 [F,CF] [F,CF]3 z |[M:3/4][K:treble] D2 DD D2 | D2 DD D2 | F2 FF F2 | F2 FF F2 | %18
 [B,F]3 [B,CF]3 | [B,DB]2 [B,F][K:bass] [E,B,]2 [E,G,E] | [F,D]2 [F,F] [F,E]2 [F,C] | %21
[M:5/8] [B,,F,]-[B,,F,]- [B,,F,]3 |] %22
V:3
 x6 | x6 | F6 | x6 | x6 | x6 | z3 z c[DB] | x6 |[M:5/8] x5 |[M:1/8] x |[M:3/4] x6 | x6 | x6 | %13
[M:7/8] x7 |[M:3/4] x6 | x6 | x6 | x6 | x6 | x6 | x6 |[M:5/8] x5 |] %22
V:4
 x6 | x6 | x6 | x6 | x6 | x6 | z3 .F,3 | x6 |[M:5/8] x5 |[M:1/8] x |[M:3/4] x6 | x6 | x6 | %13
[M:7/8] x7 |[M:3/4] x6 | x6 | x6 | x6 | x6 | x6 | x6 |[M:5/8] x5 |] %22
V:5
 x6 | x6 | x6 | x6 | x6 | x6 | z3 .B,,3 | x6 |[M:5/8] x5 |[M:1/8] x |[M:3/4] x6 | x6 | x6 | %13
[M:7/8] x7 |[M:3/4][K:treble] x6 | x6 | x6 | x6 | x6 | x3[K:bass] x3 | x6 |[M:5/8] x5 |] %22

